packages/ui/src/components/Icon/Icon.assets/cart.svg

<svg width="40" height="40" viewBox="0 0 40 40" fill="none" xmlns="http://www.w3.org/2000/svg">
<path fill-rule="evenodd" clip-rule="evenodd" d="M7.5026 3.01335C7.3476 2.23169 6.6626 1.66669 5.86427 1.66669H1.66927C0.745934 1.66669 -0.000732422 2.41669 -0.000732422 3.34169C-0.000732422 4.26835 0.745934 5.01502 1.66927 5.01502H4.89593L5.9976 11.1284L6.0206 11.2817L6.32093 12.915L7.30093 18.3334H7.32093L8.3556 23.9284C8.64893 25.515 10.0506 26.6667 11.6856 26.6667H32.6256C34.2606 26.6667 35.6639 25.515 35.9556 23.9284L38.2906 11.2817C38.5739 9.74669 37.3773 8.33335 35.7939 8.33335H8.51893C8.50485 8.33335 8.4908 8.33347 8.47678 8.33369L7.5026 3.01335ZM11.6668 30.4167C13.2768 30.4167 14.5834 31.7234 14.5834 33.3334C14.5834 34.9434 13.2768 36.25 11.6668 36.25C10.0568 36.25 8.7501 34.9434 8.7501 33.3334C8.7501 31.7234 10.0568 30.4167 11.6668 30.4167ZM31.6668 30.4167C33.2768 30.4167 34.5834 31.7234 34.5834 33.3334C34.5834 34.9434 33.2768 36.25 31.6668 36.25C30.0568 36.25 28.7501 34.9434 28.7501 33.3334C28.7501 31.7234 30.0568 30.4167 31.6668 30.4167Z" fill="white"/>
</svg>

<svg width="40" height="40" fill="none" xmlns="http://www.w3.org/2000/svg"><path fill-rule="evenodd" clip-rule="evenodd" d="M7.503 3.013a1.67 1.67 0 00-1.639-1.346H1.67c-.923 0-1.67.75-1.67 1.675a1.67 1.67 0 001.67 1.673h3.227l1.102 6.113.023.154.3 1.633.98 5.418h.02l1.035 5.595c.293 1.587 1.695 2.739 3.33 2.739h20.94c1.635 0 3.038-1.152 3.33-2.739l2.335-12.646c.283-1.535-.914-2.949-2.497-2.949H8.477l-.974-5.32zm4.164 27.404a2.918 2.918 0 010 5.833 2.918 2.918 0 010-5.833zm20 0a2.918 2.918 0 010 5.833 2.918 2.918 0 010-5.833z" fill="#fff"/></svg>
